X:1
T:Title
%%score 1 { 2 | 3 }
L:1/8
Q:1/4=100
M:4/4
K:F
V:1 treble nm="Grand Piano, Soprano"
V:2 treble nm="Choir Pad, Have You Sought?"
V:3 bass 
V:1
 C>[CF] [FA]2 [FA]>[FA] [FA]2 | [FA]>[FA] [FA]>B [Fc]4 | [Fc]>[Fc] [Ec]2 [EG]>[FA] [GB]2 | %3
w: By~Ira~David~Sankey * * * * *|||
 [FA]>[EG] [FA]6 | C>[CF] [FA]2 [FA]>[FA] [FA]2 | [FA]2 [FA]>B [Fc]4 | %6
w: |||
 [Fc]2 [Ec]2 [EG]>[FA] [GB]2 | [FA]>[EG] F6 | F>[_EF] [Dd]2 [Fd]>[Fd] [FB]2 | [Fd]2 [Fc]2 [FA]4 | %10
w: ||||
 [Fc]>[Fc] [Ec]2 [EG]>[FA] [GB]2 | [FA]>[EG] [FA]6 | F>[_EF] [Dd]2 [Fd]>[Fd] [Fe]2 | %13
w: |||
 [Fd]>[Fd] [Fc]2 [FA]4 | F>[EF] [FA]2 [FA]>[FB] [FA]2 | [EG]>F F6- | F2 z2 z4 |] %17
w: ||||
V:2
 A,>A, C2 C>C C2 | C>C[K:bass] F,>G, A,4 | A,>A, G,2[K:treble] C>C C2 | C>C C6 | A,>A, C2 C>C C2 | %5
 C2[K:bass] F,>G, A,4 | A,2 G,2[K:treble] C>C C2 | C>B,[K:bass] A,6 | A,>A, B,2 B,>B, B,2 | %9
 B,2 A,2 C4 | A,>A, G,2[K:treble] C>C C2 | C>C C6 | A,>A, B,2 B,>B, C2 | B,>B, A,2[K:treble] C4 | %14
 C>D C2 C>D[K:bass] C2 | B,>A, A,6- | A,2 z2 z4 |] %17
V:3
 F,>F, F,2 F,>F, F,2 | F,>F, z2 F,4 | F,>F, C,2 C,>C, C,2 | C,>C, F,6 | F,>F, F,2 F,>F, F,2 | %5
 F,2 z2 F,4 | F,2 C,2 C,>C, C,2 | C,>C, F,6 | F,>F, B,,2 B,,>B,, D,2 | B,,2 F,2 F,4 | %10
 F,>F, C,2 C,>C, C,2 | C,>C, F,6 | F,>F, B,,2 B,,>B,, B,,2 | B,,>D, F,2 F,4 | %14
 A,,>B,, C,2 C,>C, C,2 | C,>F, F,6- | F,2 z2 z4 |] %17

